X:1
T:Partition sans titre
C:Compositeur / Arrangeur
L:1/8
M:3/4
I:linebreak $
K:D
V:1 treble nm="Violon" snm="Vln."
V:1
 DF |:"D" A2 AG FA | d2 dA BA |"G" G2 GB AG | FG EF DF |"D" A2 AG FA | d2 dA BA |"G" G2 Gg fe |1 %8
"D" d4 DF :|2"D" d4 Ad |:"D" f2 fa gf |"A" e2 eg fe |"D" d2 df ed |"A" c2 Bc Ad |"D" f2 fa gf | %15
"A" e2 eg fe |"D" d2 df ec |1 d4 Ad :|2 d4 |] %19
